img/map-markers/camera.svg

<svg width="150" height="150" viewBox="0 0 150 150" fill="none" xmlns="http://www.w3.org/2000/svg">
<g filter="url(#filter0_d_2_108)">
<circle cx="75" cy="65" r="25" fill="white"/>
</g>
<circle cx="75" cy="65" r="25" fill="white"/>
<circle cx="75.236" cy="64.7641" r="21.934" fill="#FC6733"/>
<path d="M75.0001 61.629C72.3417 61.629 70.1875 63.7831 70.1875 66.4415C70.1875 69.0999 72.3417 71.254 75.0001 71.254C77.6584 71.254 79.8126 69.0999 79.8126 66.4415C79.8126 63.7832 77.6584 61.629 75.0001 61.629ZM77.9792 66.9C77.7042 66.9 77.5208 66.7166 77.5208 66.4416C77.5208 65.0666 76.3749 63.9207 74.9999 63.9207C74.7249 63.9207 74.5415 63.7373 74.5415 63.4623C74.5415 63.1873 74.7249 63.0039 74.9999 63.0039C76.879 63.0039 78.4374 64.5623 78.4374 66.4414C78.4376 66.7166 78.2542 66.9 77.9792 66.9Z" fill="white"/>
<path d="M84.6252 59.3834H79.6752L79.0793 57.8709C78.8502 57.3209 78.346 57 77.796 57H72.1125C71.5625 57 71.0125 57.3666 70.8292 57.8709L70.2333 59.3834H69.0874L69.0875 58.2834H66.5209V59.3834H65.375C64.5959 59.3834 64 59.9793 64 60.7584V72.125C64 72.9041 64.5959 73.5 65.375 73.5H84.6251C85.4042 73.5 86.0001 72.9041 86.0001 72.125V60.7584C86.0001 60.025 85.4042 59.3834 84.6251 59.3834H84.6252ZM68.0336 62.9584H65.7877C65.5127 62.9584 65.3293 62.775 65.3293 62.5C65.3293 62.225 65.5127 62.0416 65.7877 62.0416H68.0336C68.3086 62.0416 68.492 62.225 68.492 62.5C68.4918 62.775 68.2627 62.9584 68.0336 62.9584ZM75.0001 72.171C71.8376 72.171 69.2711 69.6043 69.2711 66.4419C69.2711 63.2792 71.8377 60.7124 75.0001 60.7124C78.1626 60.7124 80.7292 63.2791 80.7292 66.4415C80.7292 69.6039 78.1626 72.171 75.0001 72.171ZM84.3502 62.6374H81.3252V61.1708H84.3502V62.6374Z" fill="white"/>
<defs>
<filter id="filter0_d_2_108" x="0" y="0" width="150" height="150" filterUnits="userSpaceOnUse" color-interpolation-filters="sRGB">
<feFlood flood-opacity="0" result="BackgroundImageFix"/>
<feColorMatrix in="SourceAlpha" type="matrix" values="0 0 0 0 0 0 0 0 0 0 0 0 0 0 0 0 0 0 127 0" result="hardAlpha"/>
<feOffset dy="10"/>
<feGaussianBlur stdDeviation="25"/>
<feColorMatrix type="matrix" values="0 0 0 0 0 0 0 0 0 0 0 0 0 0 0 0 0 0 0.1 0"/>
<feBlend mode="normal" in2="BackgroundImageFix" result="effect1_dropShadow_2_108"/>
<feBlend mode="normal" in="SourceGraphic" in2="effect1_dropShadow_2_108" result="shape"/>
</filter>
</defs>
</svg>

<svg width="150" height="150" viewBox="0 0 150 150" fill="none" xmlns="http://www.w3.org/2000/svg"><circle cx="75" cy="65" r="25" fill="#fff" filter="url(#a)"/><circle cx="75" cy="65" r="25" fill="#fff"/><circle cx="75.236" cy="64.764" r="21.934" fill="#FC6733"/><path d="M75 61.629a4.812 4.812 0 1 0 0 9.625 4.812 4.812 0 1 0 0-9.625zm2.98 5.271c-.276 0-.46-.183-.46-.458A2.543 2.543 0 0 0 75 63.92c-.275 0-.459-.184-.459-.459s.184-.458.459-.458c1.879 0 3.437 1.558 3.437 3.437 0 .276-.183.459-.458.459z" fill="#fff"/><path d="M84.625 59.383h-4.95l-.596-1.512A1.38 1.38 0 0 0 77.796 57h-5.684c-.55 0-1.1.367-1.283.87l-.596 1.513h-1.146v-1.1h-2.566v1.1h-1.146A1.35 1.35 0 0 0 64 60.758v11.367c0 .78.596 1.375 1.375 1.375h19.25A1.35 1.35 0 0 0 86 72.125V60.758a1.38 1.38 0 0 0-1.375-1.375zm-16.591 3.575h-2.246c-.275 0-.459-.183-.459-.458s.184-.458.459-.458h2.246c.275 0 .458.183.458.458a.46.46 0 0 1-.458.458zM75 72.171a5.731 5.731 0 0 1-5.729-5.73 5.731 5.731 0 0 1 5.73-5.729 5.731 5.731 0 0 1 5.728 5.73A5.732 5.732 0 0 1 75 72.17zm9.35-9.534h-3.025v-1.466h3.025v1.466z" fill="#fff"/><defs><filter id="a" x="0" y="0" width="150" height="150" filterUnits="userSpaceOnUse" color-interpolation-filters="sRGB"><feFlood flood-opacity="0" result="BackgroundImageFix"/><feColorMatrix in="SourceAlpha" values="0 0 0 0 0 0 0 0 0 0 0 0 0 0 0 0 0 0 127 0" result="hardAlpha"/><feOffset dy="10"/><feGaussianBlur stdDeviation="25"/><feColorMatrix values="0 0 0 0 0 0 0 0 0 0 0 0 0 0 0 0 0 0 0.1 0"/><feBlend in2="BackgroundImageFix" result="effect1_dropShadow_2_108"/><feBlend in="SourceGraphic" in2="effect1_dropShadow_2_108" result="shape"/></filter></defs></svg>
